X: 119
T: End of the Search (reel) 
N: 051187
C: BB
N: Revisions 1/5/07
M: 4/4
Q: 1/8=380
R: reel
K: D
A|"D"dF^EF "G"GFEF|"D"dF^EF "G"GFEF|"D"DFAd "Bm"fedB|"D"AF^EF "A7"G=E E2|
"D"dF^EF "G"GFEF|"D"DFAd fgfe|"G"dBBd "Bm7"AFFG|"D"AF"A"GE "D"D3 :|
F|"D"Adcd afed|"C"=cdeg "Am7"agec|"D"Adcd afed|"C"=cdec "D"d2 cB|
"D"Adcd afed|"C"=cdeg "Am7"agec|"D"Ad (3dcd "G"BddB|"D"AF"A7"GE "D"D3 :|
%%%%%%%%%%%%%%%%%%%%%%%%%%%%%%%%%%%%%%%%%%%
